X:1
T:Norway
T:G minor        Simeon Jocelin, 1818
T:Transcribed from The New Haven Collection, 1818.
T:Isaac Watts, 1719 (Psalm 90, Part 1)                 88. 88. (L. M.)
%%score [ ( 1 2 ) ( 3 4 ) ]
L:1/8
Q:1/4=130
M:3/2
K:Bb
V:1 treble nm="S\nA" snm="S\nA"
V:2 treble 
V:3 bass nm="T\nB" snm="T\nB"
V:4 bass 
V:1
 [DB]4 | d8 [Ec]4 | B8 [Gd]4 | d8 (d2 e2) | f8 [Ff]4 | d8 [Ec]4 | B8 [EG]4 | ([Ec]6 [Dd]2) [Ce]4 | %8
w: 1. Death,|like an|ov- er-|flo- wing *|stream, Sweeps|us a-|way; our|life's * a|
w: 2. Our|age to|se- venty|years is *|set; How|short the|time! How|frail * the|
w: 3. But|O how|oft thy|wrath ap- *|pears, And|cuts off|our ex-|pec- * ted|
w: 4. Teach|us, O|Lord, how|frail is *|man, And|kind- ly|leng- then|our * our|
{e} d8 d4 | [GB]8 [FA]4 | G8 d4 | f8 (g2 f2) | [Ad]8 [GB]4 | A8 G4 | c8 (d2 c2) | [EB]4 [DA]8 | %16
w: dream, An|emp- ty|tale, a|mor- ning *|flower, Cut|down and|wi- thered *|in an|
w: state! And|if to|eigh- ty|we ar- *|rive, We|ra- ther|sigh and *|groan than|
w: years! Thy|wrath a-|wakes our|hum- ble *|dread; We|fear the|power that *|strikes us|
w: span, Till|a wise|care of|pi- e- *|ty Fit|us to|die, and *|dwell with|
 G12 |] %17
w: hour.|
w: live.|
w: dead.|
w: thee.|
V:2
 x4 | D8 x4 | D8 x4 | (F4 D4) D4 | D8 x4 | F8 x4 | D8 x4 | x12 | D8 (G2 F2) | x12 | D8 (F2 G2) | %11
 (F6 G2) B4 | x12 | (A4 F4) (D3 E) | F8 G4 | x12 | D12 |] %17
V:3
"_____________________________________________________________\nEdited by B. C. Johnston, 2018\nParts rearranged:\n   Former \nTenor\n becomes \nSoprano\n, up one octave.\n   Former \nTreble\n becomes \nTenor\n, down  one octave.\n   Former \nCounter\n becomes \nAlto\n without transposition.\n   Bass remains, without transposition." [G,,G,]4 | %1
 (B,4 G,4) [A,,^F,]4 | G,8 [B,,B,]4 | ([F,C]4 [G,B,]4) ([F,A,]2 [E,G,]2) | A,8 [D,B,]4 | %5
 (A,6 G,2) x4 | G,8 [E,B,]4 | A,8 C4 | B,8 [B,,B,]4 | D8 (D2 C2) | B,8 B,4 | D8 [B,,D]4 | %12
 F8 [D,D]4 | (D4 C4) [G,B,]4 | A,8 ([D,B,]2 [E,A,]2) | [C,G,]4 ^F,8 | G,12 |] %17
V:4
 x4 | G,,8 x4 | B,,8 x4 | x12 | D,8 x4 | F,8 [^F,A,]4 | x8 x4 | C,8{B,,} A,,4 | B,,8 x4 | %9
 B,,8 F,4 | G,8 (F,2 E,2) | D,8 x4 | D,8 x4 | F,8 x4 | (A,4 F,4) x4 | x4 D,8 | G,,12 |] %17

